X: 25518
T: Margaret's
R: waltz
M: 3/4
K: Amajor
AF|:E3F AB|c4 Ac|BA F2- (3FED|B3c/B/ AF|
E3F A2|c3e- eA|c3B- BA|1 A3A- AF:|2 A3c- cd||
|:ef3 g2|a2ga- af-|fe d2-(3def|e3A (3cBA|
A2AB cd|e3c- cA|fe dc- (3cdc|B3c- cd|
[1eA fA gA|aA gA fA|eA dA cA|B3c/B/ AF|
E3F AB|c3e- eA|c3B- BA|A3c- cd:|
[2(3eAA (3fAA (3gAA|(3aAA (3gAA (3fAA|(3eAA (3dAA cA|B3c/B/ AF|
E3F AB|c3e- eA|c3B- BA|A4||

